X: 1
T: la Moquine
C: Claude M\'eth\'e
%D:
R: reel
S: Fiddle Hell Online 2022-010-25 handout
Z: 2022 John Chambers <jc:trillian.mit.edu>
M: C|
L: 1/8
K: D
"^A"|:\
"D"fefa- aafe | dcdf- ffdA | "G"BABf- ffBf | fedf "A"e4 |
"D"fefa- aafe | dcdf- ffdA | "G"BABf- ffBf | fedf "A"ec"D"d2 :|
"^B"|:\
"G"GFGB- BBGA | BABd "A"c2A2 | "D"FEFA- AAFA | dAFA BAFD |
"G"GFGB- BBGA | BABd "A"c2A2 | "D"dcdf- ffde | fa"A"ge "D"d4 :|
